icons/default/Present.svg

<path
	d="M55 22.2183C55 22.0353 54.9771 21.8448 54.9312 21.6466C54.8853 21.4484 54.8317 21.2654 54.7705 21.0977C54.7093 20.93 54.6252 20.7699 54.5181 20.6175C54.411 20.465 54.2886 20.3202 54.1509 20.183C54.0132 20.0457 53.8678 19.9238 53.7148 19.817C53.5618 19.7103 53.3936 19.6188 53.21 19.5426C53.0264 19.4664 52.8428 19.4054 52.6592 19.3597C52.4756 19.3139 52.2767 19.2911 52.0625 19.2911H47.0596C48.4671 17.9189 49.1709 16.2571 49.1709 14.3056C49.1709 13.3909 49.0026 12.5523 48.666 11.79C48.3294 11.0277 47.7251 10.3721 46.853 9.82328C45.981 9.27443 44.9023 9 43.6172 9C43.097 9 42.5692 9.05336 42.0337 9.16008C41.4982 9.26681 40.9857 9.42689 40.4961 9.64033C40.0065 9.85378 39.5246 10.0901 39.0503 10.3493C38.576 10.6085 38.117 10.9058 37.6733 11.2412C37.2297 11.5766 36.8013 11.9196 36.3882 12.2703C35.9751 12.6209 35.5773 13.0021 35.1948 13.4137C34.8123 13.8254 34.4528 14.2218 34.1162 14.6029C33.7796 14.9841 33.4507 15.3805 33.1294 15.7921C32.8081 16.2037 32.5251 16.5773 32.2803 16.9127C32.0355 17.2481 31.806 17.5988 31.5918 17.9647C30.9492 16.9889 30.2531 16.0513 29.5034 15.1518C28.7537 14.2523 27.8434 13.307 26.7725 12.316C25.7015 11.325 24.5234 10.5246 23.2383 9.91476C21.9531 9.30492 20.6833 9 19.4287 9C18.1436 9 17.0649 9.27443 16.1929 9.82328C15.3208 10.3721 14.7165 11.0277 14.3799 11.79C14.0433 12.5523 13.875 13.3909 13.875 14.3056C13.875 16.2571 14.5941 17.9342 16.0322 19.3368H10.9375C10.1113 19.3368 9.4152 19.6188 8.84912 20.183C8.28304 20.7471 8 21.4407 8 22.264V31H10.9834V50.0728C10.9834 50.8656 11.2664 51.5516 11.8325 52.131C12.3986 52.7103 13.0947 53 13.9209 53H49.125C49.9512 53 50.6473 52.7103 51.2134 52.131C51.7795 51.5516 52.0625 50.8656 52.0625 50.0728V31H55V22.2183ZM43.6172 11.9272C45.3613 11.9272 46.2334 12.72 46.2334 14.3056C46.2334 15.3423 45.8815 16.2495 45.1777 17.027C44.474 17.8046 43.5942 18.3763 42.5386 18.7422C41.4829 19.1081 40.3584 19.2911 39.165 19.2911H34.208C34.7894 18.4373 35.409 17.6216 36.0669 16.8441C36.7248 16.0665 37.4668 15.289 38.293 14.5114C39.1191 13.7339 39.9989 13.1088 40.9321 12.6362C41.8654 12.1635 42.7604 11.9272 43.6172 11.9272ZM19.4287 11.9272C21.0811 11.9272 22.7563 12.6743 24.4546 14.1684C26.1528 15.6625 27.6598 17.3701 28.9756 19.2911H24.0186C22.152 19.2911 20.4844 18.8337 19.0156 17.9189C17.5469 17.0042 16.8125 15.7845 16.8125 14.2599C16.8125 12.7963 17.5928 12.034 19.1533 11.973C19.2451 11.9425 19.3369 11.9272 19.4287 11.9272ZM52.0625 28.0728H32.9688V22.2183H52.0625V28.0728ZM10.9375 22.2183H30.0312V28.0728H10.9375V22.2183ZM13.9209 31H30.0312V50.0728H13.9209V31ZM49.125 50.0728H32.9688V31H49.125V50.0728Z"
	fill="black" />

<path d="M55 22.218c0-.183-.023-.373-.069-.571a4.688 4.688 0 0 0-.16-.55 2.063 2.063 0 0 0-.253-.48 3.25 3.25 0 0 0-.803-.8 2.664 2.664 0 0 0-.505-.274 3.884 3.884 0 0 0-.55-.183 2.461 2.461 0 0 0-.597-.069H47.06c1.407-1.372 2.11-3.034 2.11-4.985 0-.915-.167-1.754-.504-2.516-.337-.762-.94-1.418-1.813-1.967-.872-.549-1.95-.823-3.236-.823-.52 0-1.048.053-1.583.16a7.507 7.507 0 0 0-1.538.48c-.49.214-.971.45-1.446.71-.474.258-.933.556-1.377.891-.443.336-.872.679-1.285 1.03-.413.35-.81.731-1.193 1.143-.383.411-.742.808-1.079 1.189-.336.381-.665.777-.987 1.19-.32.41-.604.784-.849 1.12-.245.335-.474.686-.688 1.052a31.143 31.143 0 0 0-2.089-2.813c-.75-.9-1.66-1.845-2.73-2.836a14.052 14.052 0 0 0-3.535-2.401C21.953 9.305 20.683 9 19.428 9c-1.284 0-2.363.274-3.235.823-.872.55-1.477 1.205-1.813 1.967-.337.762-.505 1.6-.505 2.516 0 1.951.72 3.628 2.157 5.03h-5.095c-.826 0-1.522.283-2.088.847-.566.564-.849 1.258-.849 2.081V31h2.983v19.073c0 .793.283 1.479.85 2.058.566.58 1.262.869 2.088.869h35.204c.826 0 1.522-.29 2.088-.869.566-.58.85-1.265.85-2.058V31H55v-8.782Zm-11.383-10.29c1.744 0 2.616.792 2.616 2.378 0 1.036-.351 1.944-1.055 2.721-.704.778-1.584 1.35-2.64 1.715a10.23 10.23 0 0 1-3.373.55h-4.957a29.419 29.419 0 0 1 1.859-2.448c.658-.777 1.4-1.555 2.226-2.333a11.303 11.303 0 0 1 2.64-1.875c.932-.472 1.827-.709 2.684-.709Zm-24.188 0c1.652 0 3.327.746 5.026 2.24a27.443 27.443 0 0 1 4.52 5.123H24.02c-1.867 0-3.535-.457-5.003-1.372-1.47-.915-2.203-2.135-2.203-3.66 0-1.463.78-2.225 2.34-2.286a.869.869 0 0 1 .276-.046Zm32.633 16.145H32.97v-5.855h19.093v5.855Zm-41.124-5.855H30.03v5.855H10.938v-5.855ZM13.92 31h16.11v19.073h-16.11V31Zm35.204 19.073H32.969V31h16.156v19.073Z"/>
